!!!id: bhatk3197a
!!!vol: 3
!!!page: 197
!!!antara: Abadha ginata
!!!raag: bihag
!!!taal: teental
!!!tempo: madhyalaya
**kern
!!data: // P  P  P  S'/  S'  S'  S'  -/  >NS'  >R'S'  N  P/  P  P  >NS'  N/
==1
4g
4g
4g
4cc
=
4cc
4cc
2cc
=
bq
4cc
ddq
4cc
4b
4g
=
4g
4g
bq
4cc
4b
!!data: // >PG  M  P  N/  >R'S'  N  >DP  P/  P  -  >PG  -/  >GM  G  S  -/
==2
gq
4e
4f
4g
4b
=
ddq
4cc
4b
aq
4g
4g
=
2g
gq
2e
=
eq
4f
4e
2c
==
*-
